X:1
T:Etude 18, Op 176
T:Jean-Baptiste Duvernoy c. 1802 – c. 1880 
%%score { 1 | 2 }
L:1/8
Q:1/4=116
M:3/4
K:C
V:1 treble nm="Piano" snm="Pno."
V:2 bass 
V:1
!p!"^Allegretto" (A^GABcd) | (eABcde) | (fefgaf | e4) z2 |!>(! (fedc .B) z!>)! | %5
!>(! (edcB .A) z!>)! | (A^GABcA | .B) z (.e2 .e2) | (A^GABcd) | (eABcde) | (fefgaf | e4) z2 | %12
!<(! (e^de^fga)!<)! |!>(! (b2 ag^fe | ^dcBAG^F!>)! | E4) z2 |!f!"_marcato" .c' z .e z .c' z | %17
 !>!b4 z2 | .a z .c z .a z | !>!g4 z2 |!<(! (d^cdefg!<)! |!>(! agfed^c!>)! | d^cded=c | %23
 .B) z .g z .g z |!f!"_marcato" .c' z .e z .c' z | !>!b4 z2 | .a z .c z .a z | !>!g4 z2 | %28
!<(! (d^cdefg!<)! |!>(! agfed=c)!>)! | .B z .g z .B z | c4 z2 |!p!!<(! (E^F^GA .B) z | %33
 (ABcd .e) z | (e^f^ga .b) z | (abc'd' .e') z!<)! |!f!!8va(! (a'g'f'e'd'c'!8va)! | %37
"_dim."!>(! bagfed) | (edcedc | .e) z (edcB)!>)! |!p! (A^GABcd) | (eABcde) | (fefgaf | e4) z2 | %44
!>(! (fedc .B) z!>)! |!>(! (edcB .A) z!>)! | (A^GABcA | .B) z (.e2 .e2) | (A^GABcd) | (eABcde) | %50
 (fefgaf | e4) z2 |!f! (e'd'c'bag | fedcBA | .^G) z .E z .e z | !>!A4 z2 |] %56
V:2
!pp! (A,2 C2 E2) | (A,2 C2 E2) | (A,2 D2 F2) | (A,2 C2 E2) | (^G,2 B,2 E2) | (A,2 C2 E2) | %6
 (F,2 C2 A,2) | [E,^G,]2 z4 | (A,,2 C,2 E,2) | (A,,2 C,2 E,2) | (A,,2 D,2 F,2) | (A,,2 C,2 E,2) | %12
 (A,,2 E,2 G,2) | (A,,2 E,2 G,2) | (B,,4 G,2 | [E,G,]4) z2 |!mp! (C,B,,C,D,E,F, | %17
 .G,) z .G,, z .G, z | (F,E,F,G,A,B, | .C) z .C, z .C z | (F,2 A,2 D2) | (F,2 A,2 D2) | %22
 (^F,2 A,2 D2) | [G,B,]2 z4 |!mp! (C,B,,C,D,E,F, | .G,) z .G,, z .G, z | (F,E,F,G,A,B, | %27
 .C) z .C, z .C z | (F,2 A,2 D2) | (F,2 A,2 D2) | (G,4 F2 | [CE]4) z2 |!pp! E, z B, z D z | %33
 E, z A, z C z | E, z B, z D z | E, z A, z C z |!p! (C,2 E,2 A,2) | (D,2 F,2 B,2) | %38
 (^D,2 ^F,2 C2) | [E,^G,]2 z4 |!pp! (A,2 C2 E2) | (A,2 C2 E2) | (A,2 D2 F2) | (A,2 C2 E2) | %44
 (^G,2 B,2 E2) | (A,2 C2 E2) | (F,2 C2 A,2) | [E,^G,]2 z4 | (A,,2 C,2 E,2) | (A,,2 C,2 E,2) | %50
 (A,,2 D,2 F,2) | (A,,2 C,2 E,2) |!p! (C,2 E,2 A,2) | (D,2 F,2 B,2) | E,4 D2 | !>![A,C]4 z2 |] %56

